X: 3427
M: 3/4
L: 1/4
K: C
uG |\
cef | (g2a) | g3 | f2f |\
eGc | (e2d) | c3- | cz :|
|: g |\
fBd | (g2f) | eGc | (f2e) |\
dGB | (e2d) | c/B/c/d/e/c/ | G2g |\
fBd | (g2f) | eGc | (f2e) |\
dGB | (e2d) | c3- | cz :|


